public/google.svg

<svg width="23" height="22" viewBox="0 0 23 22" fill="none" xmlns="http://www.w3.org/2000/svg">
<path d="M11.7246 8.7968V12.8632H17.7654C17.5002 14.1709 16.7042 15.2782 15.5103 16.0228L19.1532 18.6669C21.2756 16.8342 22.5001 14.1424 22.5001 10.9446C22.5001 10.2001 22.4287 9.48413 22.296 8.79691L11.7246 8.7968Z" fill="#4285F4"/>
<path d="M5.43393 12.7045L4.61233 13.2928L1.7041 15.4119C3.55105 18.8387 7.3365 21.206 11.7242 21.206C14.7548 21.206 17.2956 20.2705 19.1528 18.6669L15.5099 16.0228C14.5099 16.6528 13.2344 17.0346 11.7242 17.0346C8.80588 17.0346 6.32635 15.1924 5.43852 12.7105L5.43393 12.7045Z" fill="#34A853"/>
<path d="M1.704 6C0.938732 7.41268 0.5 9.0068 0.5 10.7059C0.5 12.4049 0.938732 13.9991 1.704 15.4117C1.704 15.4212 5.43878 12.7008 5.43878 12.7008C5.21429 12.0708 5.0816 11.4027 5.0816 10.7058C5.0816 10.0088 5.21429 9.3407 5.43878 8.7107L1.704 6Z" fill="#FBBC05"/>
<path d="M11.7245 4.3868C13.3776 4.3868 14.8469 4.92134 16.0204 5.95226L19.2347 2.94547C17.2857 1.2464 14.7551 0.205872 11.7245 0.205872C7.33673 0.205872 3.55105 2.56361 1.7041 6L5.43877 8.71093C6.32647 6.22907 8.80611 4.3868 11.7245 4.3868Z" fill="#EA4335"/>
</svg>

<svg width="23" height="22" fill="none" xmlns="http://www.w3.org/2000/svg"><path d="M11.725 8.797v4.066h6.04c-.265 1.308-1.06 2.415-2.255 3.16l3.643 2.644c2.123-1.833 3.347-4.525 3.347-7.722 0-.745-.071-1.46-.204-2.148H11.725z" fill="#4285F4"/><path d="m5.434 12.704-.822.589-2.908 2.119c1.847 3.427 5.633 5.794 10.02 5.794 3.03 0 5.572-.936 7.429-2.54l-3.643-2.643c-1 .63-2.276 1.012-3.786 1.012-2.918 0-5.398-1.843-6.285-4.325l-.005-.006z" fill="#34A853"/><path d="M1.704 6A9.832 9.832 0 0 0 .5 10.706c0 1.699.439 3.293 1.204 4.706 0 .01 3.735-2.711 3.735-2.711a5.925 5.925 0 0 1-.357-1.995c0-.697.132-1.365.357-1.995L1.704 6z" fill="#FBBC05"/><path d="M11.725 4.387c1.653 0 3.122.534 4.295 1.565l3.215-3.007c-1.95-1.699-4.48-2.74-7.51-2.74C7.337.206 3.55 2.565 1.705 6l3.734 2.71c.887-2.48 3.367-4.323 6.286-4.323z" fill="#EA4335"/></svg>
